X: 22823
T: Lar White's
R: jig
M: 6/8
K: Dmajor
|:DE|FEF D2 A,|DFA ded|cBc ABe|dcA G2 E|
AFF GEE|FED EFG|Add cAG|EDC D:|
|:FG|Add edc|Adc d2f|eAA eAA|cde ABc|
ded cAc|BGB AFD|GFG AFD|EDC D:|

